X:1
T:I'll String Along With You
T:I'll String Along With You
T:Harry Warren
T:Al Dubin
C:Harry Warren
Z:All Rights Reserved
L:1/8
M:2/2
K:Eb
V:1 treble 
%%MIDI program 40
V:1
|: z3/2"Eb" G<AG/ B2 E2 | G2 G6 | z3/2 G<AG/ B2 E2 |"G7" G4-"C7" G4 |"Fm" z2 F>G"Fm7" A>Bc>e | %5
w: You may not be an|an- gel,|'cause an- gels are so|few. *|But un- til the day that|
w: I'm look- ing for an|an- gel|to sing my love song|to. *|And un- til the day that|
"Bb" d2 d>_d"Bb7" c4 |1"Bb6" B2 B>=A"Bb7" _A2 B2 |"Eb" G8 :|2"Bb6" B2 B>=A"Bb7" _A2 D2 |"Eb" E8 | %10
w: one comes a- long|I'll string a- long with|you.|I'll sing my song to|you.|
w: one comes a- long|||||
"Fm" z2"F#dim" z2"Eb/G" z2 z2 ||"^AB" z3/2 e<ee/"Abm6" e>ee>e |"Eb/G" e2"Gbdim" e4 d2 | %13
w: |For ev- 'ry lit- tle fault that|you have Say,|
w: |||
"Bb7" c2 c2"Edim" c2 c2 |"Bb7" c4-"F#dim" c4 |"Eb" z3/2 B<BB/"^Ebma7" B>B"Eb7"B>B | %16
w: I've got three or|four. *|The hu- man lit- tle faults you|
w: |||
"Ab" A2"Abm6" A4 A2 |"Eb" G2 G2"^F9sus4" d2 d2 |"Bb+7" ^F8 | z3/2"Eb" G<AG/ B2 E2 | G2 G6 | %21
w: do have just|make me love you|more.|You may not be an|an- gel,|
w: |||||
 z3/2"Eb" G<AG/ B2 E2 |"G7" G4-"C7" G4 |"Fm" z2 F>G A>Bc>e |"Bb" d2 d>_d"Bb7" c4 | %25
w: but still I'm sure you'll|do. *|So un- til the day that|one comes a- long|
w: ||||
"Bb6" B2 B>=A"Bb7" _A2 D2 |"Eb" G8 |] %27
w: I'll string a- long with|you.|
w: ||

